X:1
T:Sinterklaas kapoentje
C:Traditional
Z:Public Domain
L:1/8
M:2/4
K:C
V:1 treble nm="Alto Saxophone" snm="A. Sax."
%%MIDI program 5
V:1
"C" G>G A>A | G2 E2 |"C" G>G A>A | G2 E2 |"G7" F>F F>D | F2 F2 |"F" A>G"Dm" F>E |"G7" D2"C" C2 |] %8
w: Sin- ter- klaas ka-|poen- tje|gooi wat in mijn|schoen- tje|leg wat in mijn|laars- je|dank u Sin- ter-|klaas- je|

